X: 34
T: Fir Tree, The
R:Strathspey
S:MacDonald - Skye Collection
N:pg.49
M:C
L:1/8
K:D
A|F2 DB/c/ d>A=c>G|E2 =C>E =c>GE>A|F2 DB/c/ d>AG>A|F2 DB/c/ e/d/B/A/ d>f|
F2 DB/c/ d>A=c>G|E2 =C>E =c>GE>G|D>EF>G A<d A>F|G<E A>G FDD||
f|d/d/d f>d g>ef>d|e/e/e f>d g>e=ce|d/d/d f>d g>ef>d|e/e/e ~a>g f>d d<f|
d/d/d f>d g>ef>d|e/e/e f>d g>e=ce|d>ef>g a>ba>f|g>e a/g/f/e/ fdd||


